packages/clerk-js/src/v4/icons/tick-shield.svg

<svg viewBox="0 0 27 27" fill="none" xmlns="http://www.w3.org/2000/svg">
    <path fill-rule="evenodd" clip-rule="evenodd"
          d="M0.716944 4.99845C5.53017 4.93314 9.91562 3.09673 13.2512 0.111328C16.5867 3.09672 20.9722 4.93314 25.7854 4.99845C25.9602 6.03968 26.0512 7.10934 26.0512 8.20025C26.0512 16.56 20.7084 23.6719 13.2512 26.3077C5.79394 23.6719 0.451172 16.56 0.451172 8.20025C0.451172 7.10934 0.542154 6.03968 0.716944 4.99845ZM19.1825 10.9316C19.8074 10.3067 19.8074 9.29366 19.1825 8.66883C18.5577 8.04399 17.5446 8.04399 16.9198 8.66883L11.6512 13.9375L9.58254 11.8688C8.9577 11.244 7.94464 11.244 7.3198 11.8688C6.69496 12.4937 6.69496 13.5067 7.3198 14.1316L10.5198 17.3316C11.1446 17.9564 12.1577 17.9564 12.7825 17.3316L19.1825 10.9316Z"
          fill="currentColor"/>
</svg>

<svg viewBox="0 0 27 27" fill="none" xmlns="http://www.w3.org/2000/svg"><path fill-rule="evenodd" clip-rule="evenodd" d="M.717 4.998A19.127 19.127 0 0 0 13.25.111a19.126 19.126 0 0 0 12.534 4.887c.175 1.042.266 2.111.266 3.202 0 8.36-5.343 15.472-12.8 18.108C5.794 23.672.451 16.56.451 8.2c0-1.09.091-2.16.266-3.202Zm18.465 5.934a1.6 1.6 0 1 0-2.262-2.263l-5.269 5.268-2.068-2.068a1.6 1.6 0 0 0-2.263 2.263l3.2 3.2a1.6 1.6 0 0 0 2.263 0l6.4-6.4Z" fill="currentColor"/></svg>
